!!!CDT:
!!!PTL: Il secondo libro de madrigali a cinque voci
!!!PPP: Paris
!!!PPR: Le Roy et Ballard
!!!PDT: 1586
!!!PUB-format:
!!!RISM: V 1086
!!!rime: 198
!!!AGN: Madrigal
!!!SCT: Trm0198a
!!!SCA: Trm0198a
!!!original-voices: 5
!!!extant-voices: 5
!!!complete: Y
!!!final: D
!!!COM: Vecoli, Regolo
!!!OTL: Chi la felice pianta d'orïente
**kern	**text	**kern	**text	**kern	**text	**kern	**text	**kern	**text
*part5	*part5	*part4	*part4	*part3	*part3	*part2	*part2	*part1	*part1
*staff5	*staff5	*staff4	*staff4	*staff3	*staff3	*staff2	*staff2	*staff1	*staff1
*I"Basso	*	*I"Quinto	*	*I"Tenore	*	*I"Alto	*	*I"Canto	*
*I'B	*	*I'V	*	*I'T	*	*I'A	*	*I'C	*
*oclefF4	*	*oclefC4	*	*oclefC4	*	*oclefC2	*	*oclefC1	*
*clefF4	*	*clefGv2	*	*clefGv2	*	*clefG2	*	*clefG2	*
*k[]	*	*k[]	*	*k[]	*	*k[]	*	*k[]	*
*omet(C|)	*	*omet(C|)	*	*omet(C|)	*	*omet(C|)	*	*omet(C|)	*
*M2/1	*	*M2/1	*	*M2/1	*	*M2/1	*	*M2/1	*
=1	=1	=1	=1	=1	=1	=1	=1	=1	=1
0r	.	1D	Chi	1d	Chi	1f	Chi	1a	Chi
.	.	2.A	la	2.c	la	2.e	la	2.a	la
.	.	4A	fe-	4c#X	fe-	4e	fe-	4a	fe-
=2	=2	=2	=2	=2	=2	=2	=2	=2	=2
0r	.	2A	-li-	2c#X	-li-	2e	-li-	2a	-li-
.	.	2d	-ce	2d	-ce	2f	-ce	2a	-ce
.	.	4c	pian-	2e	pian-	2g	pian-	[1cc	pian-
.	.	4B	.	.	.	.	.	.	.
.	.	4A	.	2e	-ta	[2a	-ta	.	.
.	.	4G	.	.	.	.	.	.	.
=3	=3	=3	=3	=3	=3	=3	=3	=3	=3
0r	.	2Fy	.	2f	d'O-	2a]	.	2cc]	.
.	.	2G	-ta	2d	-ri-	2g	d'O-	2b	-ta
.	.	2A	d'O-	[1cnXi	-en-	2e	-ri-	2a	d'O-
.	.	2Fy	-ri-	.	.	[2f	-en-	2a	-ri-
=4	=4	=4	=4	=4	=4	=4	=4	=4	=4
0r	.	1c	-en-	1c]	.	2f]	.	1g	-en-
.	.	.	.	.	.	2e	.	.	.
.	.	2Fy	-te	1c	-te	2f	-te	2a	-te
.	.	2A	Por-	.	.	2e	Por-	2a	Por-
=5	=5	=5	=5	=5	=5	=5	=5	=5	=5
0r	.	4d	-tò	4r	.	4f	-tò	2.a	-tò
.	.	4c	nel	4A	Por-	4e	nel-	.	.
.	.	4d	l'Oc-	4F#X	-tò	4A	-l'Oc-	.	.
.	.	4B	-ci-	4G	nel-	4B	-ci-	4g	nel-
.	.	1A	-den-	4A	-l'Oc-	4c#X	-den-	4e	-l'Oc-
.	.	.	.	4D	-ci-	2d	.	4f	-ci-
.	.	.	.	2A	-den-	.	.	2e	-den-
.	.	.	.	.	.	4c#X	.	.	.
=6	=6	=6	=6	=6	=6	=6	=6	=6	=6
2r	.	2A	-te?	2D	-te?	1d	-te?	2f#X	-te?
2D	Et	2F#X	Et	2d	Et	.	.	2a	Et
2GG	di	2G	di	2d	di	2r	.	2b	di
2AA	qual	2E	qual	2c	qual	2a	Et	2cc	qual
=7	=7	=7	=7	=7	=7	=7	=7	=7	=7
1BB-X	ma-	2.D	ma-	1B-X	ma-	2f	di	1dd	ma-
.	.	.	.	.	.	2g	qual	.	.
.	.	4E	.	.	.	.	.	.	.
1FF	-no	2FX	.	4A	-no a-	1a	ma-	2cc	-no a-
.	.	.	.	4c	-ven-	.	.	.	.
.	.	4C	-no a-	4.c	-tu-	.	.	2a	-ven-
.	.	4Fy	-ven-	.	.	.	.	.	.
.	.	.	.	8d	.	.	.	.	.
=8	=8	=8	=8	=8	=8	=8	=8	=8	=8
1r	.	4.E	-tu-	4e	-ro-	2g	-no a-	2cc	-tu-
.	.	.	.	4e	-s'è	.	.	.	.
.	.	8Fy	.	.	.	.	.	.	.
.	.	4G	-ro-	1d	que-	2g	-ven-	2b	-ro-
.	.	4G	-s'è	.	.	.	.	.	.
1A	a-	2D	que-	.	.	2f	-tu-	2.a	.
.	.	2A	-sto	2c	-sto,	2e	-ro-	.	.
.	.	.	.	.	.	.	.	4g	.
=9	=9	=9	=9	=9	=9	=9	=9	=9	=9
2B	-ven-	0r	.	4r	.	2d	-s'è	4f	.
.	.	.	.	4d	a-	.	.	4g	.
2A	-tu-	.	.	4e	-ven-	1c	que-	1a	.
.	.	.	.	4e	-tu-	.	.	.	.
2F	-ro-	.	.	2f	-ro-	.	.	.	.
2F	-s'è	.	.	2c	-s'è	[2f	.	2a	-s'è
=10	=10	=10	=10	=10	=10	=10	=10	=10	=10
1C	que-	1r	.	2c	que-	2f]	.	1g	que-
.	.	.	.	4c	-sto	2e	.	.	.
.	.	.	.	4c	me-	.	.	.	.
2F	-sto	2r	.	2c	-ra-	2f	-sto	2a	-sto
2F	me-	2A	me-	2d	-vi-	2f	me-	2a	me-
=11	=11	=11	=11	=11	=11	=11	=11	=11	=11
2E	-ra-	2G	-ra-	2e	-glio-	2g	-ra-	4cc	-ra-
.	.	.	.	.	.	.	.	4b	-vi-
2D	-vi-	2Fy	-vi-	1A	-so i-	2a	-vi-	1dd	-glio-
2AA	-glio-	2E	-glio-	.	.	2a	-glio-	.	.
2AA	-so i-	2E	-so	[2A	-ne-	2e	-so i-	2cc	-so i-
=12	=12	=12	=12	=12	=12	=12	=12	=12	=12
1E	-ne-	4r	.	2A]	.	1e	-ne-	1b	-ne-
.	.	4B	i-	.	.	.	.	.	.
.	.	2B	-ne-	2G#X	.	.	.	.	.
2AA	-sto?	1c#X	-sto?	1A	-sto?	1e	-sto?	1a	-sto?
2A	Fe-	.	.	.	.	.	.	.	.
=13	=13	=13	=13	=13	=13	=13	=13	=13	=13
2B	-li-	1d	Fe-	2r	.	2r	.	1r	.
2A	-ce,	.	.	2D	Fe-	2f#X	Fe-	.	.
1r	.	2B-X	-li-	2GnXi	-li-	2g	-li-	1dd	Fe-
.	.	2A	-ce,	2F#X	-ce,	2a	-ce,	.	.
=14	=14	=14	=14	=14	=14	=14	=14	=14	=14
2r	.	2G	chi	2G	chi	2d	chi	2b-X	-li-
2D	Fe-	2F#X	rac-	2A	rac-	2d	rac-	2a	-ce,
2G	-li-	2G	-co-	2B-X	-co-	1d	-co-	2g	chi
2F	-ce,	2D	-glie	2A	-glie,	.	.	2a	rac-
=15	=15	=15	=15	=15	=15	=15	=15	=15	=15
2B-X	chi	0r	.	2r	.	1d	-glie	2f	-co-
2G	rac-	.	.	2B-X	<Fe-	.	.	2g	.
2F	-co-	.	.	2A	-li-	2r	.	1a	-glie
4E	.	.	.	2d	-ce	2f	Pe-	.	.
4D	.	.	.	.	.	.	.	.	.
=16	=16	=16	=16	=16	=16	=16	=16	=16	=16
2A	.	2r	.	2c#X	chi	2e	-pe	1r	.
2D	-glie	2Fy	Pe-	2d	rac-	2a	nel	.	.
1r	.	2E	-pe	1e	-co-	2g#X	lau-	2r	.
.	.	2A	nel	.	.	2a	-ro,	2cc	Pe-
=17	=17	=17	=17	=17	=17	=17	=17	=17	=17
2r	.	2G#X	lau-	2E	-glie>	2r	.	2b	-pe
2A	Pe-	2A	-ro	2cnX	Pe-	2a	<Pe-	2ee	nel
2B	-pe	1r	.	2B	-pe	2gnXi	-pe	2dd	lau-
2c	nel	.	.	2e	nel	2g	nel	[2cc	.
=18	=18	=18	=18	=18	=18	=18	=18	=18	=18
1G	lau-	2r	.	2.d	lau-	1g	lau-	2cc]	.
.	.	2.GXi	tra	.	.	.	.	2b	.
.	.	.	.	8cL	.	.	.	.	.
.	.	.	.	8dJ	.	.	.	.	.
2C	-ro	.	.	2e	.	1g	-ra>	2cc	-ro
.	.	4A	le	.	.	.	.	.	.
[2G	tra	4B	ver-	2d	-ro	.	.	[2b	tra
.	.	4c	-di	.	.	.	.	.	.
=19	=19	=19	=19	=19	=19	=19	=19	=19	=19
4G]	.	2d	fo-	1r	.	2r	.	4b]	.
4F	le	.	.	.	.	.	.	4a	le
4E	ver-	2e	-glie,	.	.	4r	.	4cc	ver-
4E	-di	.	.	.	.	2g	tra	4b	-di
2D	fo-	4.A	tra	2r	.	.	.	2dd	fo-
.	.	.	.	.	.	4f	le	.	.
.	.	8B	le	.	.	.	.	.	.
2C	-glie!	4c	ver-	4r	.	4.e	ver-	2g	-glie,
.	.	4G	-di	[4c	tra	.	.	.	.
.	.	.	.	.	.	8f	.	.	.
=20	=20	=20	=20	=20	=20	=20	=20	=20	=20
0r	.	2G	fo-	4c]	.	4g	-di	4r	.
.	.	.	.	4B	le	4d	fo-	2g	tra
.	.	2c	-glie!	4c	ver-	4.e	.	.	.
.	.	.	.	4A	-di	.	.	4a	le
.	.	.	.	.	.	8f	.	.	.
.	.	1r	.	2e	fo-	2g	.	4b	ver-
.	.	.	.	.	.	.	.	4cc	-di
.	.	.	.	2d	-glie,	4f#X	-glie,	2dd	fo-
.	.	.	.	.	.	[4a	tra	.	.
=21	=21	=21	=21	=21	=21	=21	=21	=21	=21
0r	.	1r	.	4.e	tra	4a]	.	2b	-glie,
.	.	.	.	.	.	4g#X	le	.	.
.	.	.	.	8e	le	.	.	.	.
.	.	.	.	4c#X	ver-	4a	ver-	4.a	tra
.	.	.	.	4d	-di	4fnXi	-di	.	.
.	.	.	.	.	.	.	.	8a	le
.	.	2r	.	1A	fo-	4e	fo-	4a	ver-
.	.	.	.	.	.	2d	.	4f	-di
.	.	[2A	On-	.	.	.	.	2e	fo-
.	.	.	.	.	.	4c#X	.	.	.
=22	=22	=22	=22	=22	=22	=22	=22	=22	=22
0r	.	2A]	.	2D	-glie!	2d	-glie!	1d	-glie!
.	.	2B-X	-d'A-	1d	On-	1f	On-	.	.
.	.	1A	-mor,	.	.	.	.	2r	.
.	.	.	.	2cnX	-d'A-	2e	-d'A-	[2a	On-
=23	=23	=23	=23	=23	=23	=23	=23	=23	=23
1r	.	1r	.	2f	-mor	2d	-mor	2a]	.
.	.	.	.	4F	e	4f	e	2a	-d'A-
.	.	.	.	4A	Na-	4e	Na-	.	.
2r	.	4r	.	2G	-tu-	2g	-tu-	2b-X	-mor
.	.	2d	On-	.	.	.	.	.	.
4r	.	.	.	2D	-ra	2f	-ra,	4a	e
[4A	On-	4A	-d'A-	.	.	.	.	4f	Na-
=24	=24	=24	=24	=24	=24	=24	=24	=24	=24
4A]	.	2c	-mor	0r	.	4r	.	2e	-tu-
4E	-d'A-	.	.	.	.	2g	On-	.	.
2G	-mor	4B	e	.	.	.	.	2d	-ra,
.	.	4G	Na-	.	.	4d	-d'A-	.	.
4F	e	2A	-tu-	.	.	1f	-mor	4r	.
4D	Na-	.	.	.	.	.	.	2dd	<On-
4.F	-tu-	4A	-ra,	.	.	.	.	.	.
.	.	4c	On-	.	.	.	.	4a	-d'A-
8G	.	.	.	.	.	.	.	.	.
=25	=25	=25	=25	=25	=25	=25	=25	=25	=25
4A	.	4c	-d'A-	0r	.	4e	e	2cc	-mor
4F	-ra,	4fy	-mor	.	.	4a	Na-	.	.
4c	e	4e	e	.	.	4g	-tu-	4cc	e
4A	Na-	4fy	Na-	.	.	2f	.	4cc	Na-
2G	-tu-	2g	-tu-	.	.	.	.	2b-X	-tu-
.	.	.	.	.	.	4e	.	.	.
2F	-ra	[2c	-ra	.	.	2f	.	2a	-ra>
=26	=26	=26	=26	=26	=26	=26	=26	=26	=26
1A	et	2c]	.	0r	.	1e	-ra et	0r	.
.	.	2c	et	.	.	.	.	.	.
2F	Ar-	2c	Ar-	.	.	2f	Ar-	.	.
2G	-te u-	2B	-te u-	.	.	4e	.	.	.
.	.	.	.	.	.	4d	.	.	.
=27	=27	=27	=27	=27	=27	=27	=27	=27	=27
2A	-ni-	2.A	-ni-	2r	.	4f	.	1a	et
.	.	.	.	.	.	4e	-te u-	.	.
2D	-te	.	.	2F	et	2d	-ni-	.	.
.	.	4B	.	.	.	.	.	.	.
1r	.	4c	.	2F	Ar-	4a	-te,	2f	Ar-
.	.	4d	.	.	.	4A	et	.	.
.	.	4e	.	2E	-te u-	4c	Ar-	2g	-te u-
.	.	8dL	.	.	.	4B	-te u-	.	.
.	.	8eJ	.	.	.	.	.	.	.
=28	=28	=28	=28	=28	=28	=28	=28	=28	=28
1r	.	2fy	.	2D	-ni-	2d	-ni-	2a	-ni-
.	.	2e	-te	2A	-te	2c#X	-te	2a	-te
2F	Fan-	1r	.	2r	.	4r	.	1r	.
.	.	.	.	.	.	4a	Fan-	.	.
4E	-no a-	.	.	2c	Fan-	4g	-no a-	.	.
4F	-mi-	.	.	.	.	4a	-mi-	.	.
=29	=29	=29	=29	=29	=29	=29	=29	=29	=29
4G	-ci-	2r	.	4B	-no a-	4d	-ci-	2r	.
4E	-tia e	.	.	4c	-mi-	4e	-tia e	.	.
2D	li-	4r	.	4d	-ci-	2A	li-	2f	Fan-
.	.	4d	Fan-	4d	-tia e	.	.	.	.
4AA	-te,	4c	-no a-	4e	li-	2A	-te,	4e	-no a-
4A	Fan-	4A	-mi-	8dL	.	.	.	4f	-mi-
.	.	.	.	8cJ	.	.	.	.	.
4G	-no a-	4B	-ci-	4d	.	2r	.	4g	-ci-
4A	-mi-	4c	-tia e	[4c	.	.	.	4e	-tia e
=30	=30	=30	=30	=30	=30	=30	=30	=30	=30
4F	-ci-	2d	li-	4c]	.	2f	Fan-	2d	li-
4D	-tia e	.	.	4B	.	.	.	.	.
4.C	li-	2G	-te	2c	-te,	4.e	-no a-	4e	-te,
.	.	.	.	.	.	.	.	4cc	Fan-
8D	.	.	.	.	.	8f	-mi-	.	.
2E	.	2r	.	2r	.	2g	-ci-	4b	-no a-
.	.	.	.	.	.	.	.	4cc	-mi-
4D	-te,	2d	Fan-	2F	Fan-	2a	-tia	[2dd	-ci-
4D	<Fan-	.	.	.	.	.	.	.	.
=31	=31	=31	=31	=31	=31	=31	=31	=31	=31
4GG	-no a-	4B-X	-no a-	4G	-no a-	2r	.	2dd]	.
4FF#X	-mi-	4A	-mi-	4A	-mi-	.	.	.	.
2GG	-ci-	1G	-ci-	4B-X	-ci-	1d	e	2b-X	-tia e
.	.	.	.	4G	-tia e	.	.	.	.
1D	-tia e	.	.	2A	li-	.	.	1a	li-
.	.	2Fy	-tia e	2A	-te,	[2d	li-	.	.
=32	=32	=32	=32	=32	=32	=32	=32	=32	=32
2AA	li-	1E	li-	2r	.	2d]	.	1a	-te,
2AA	-te,>	.	.	1A	On-	2c#X	.	.	.
1r	.	2D	-te,	.	.	2d	-te,	1r	.
.	.	[2d	On-	2B-X	-d'A-	[2f	On-	.	.
=33	=33	=33	=33	=33	=33	=33	=33	=33	=33
0r	.	2d]	.	1A	-mor,	2f]	.	2r	.
.	.	2c	-d'A-	.	.	2e	-d'A-	1a	On-
.	.	2fy	-mor	1r	.	2d	-mor	.	.
.	.	4Fy	e	.	.	4f	e	2a	-d'A-
.	.	4A	Na-	.	.	4e	Na-	.	.
=34	=34	=34	=34	=34	=34	=34	=34	=34	=34
2r	.	2G	-tu-	4r	.	2g	-tu-	2b-X	-mor
.	.	.	.	2d	On-	.	.	.	.
4r	.	2D	-ra	.	.	2f	-ra,	4a	e
2A	On-	.	.	4A	-d'A-	.	.	4f	Na-
.	.	1r	.	2c	-mor	4r	.	2e	-tu-
4E	-d'A-	.	.	.	.	2g	On-	.	.
2G	-mor	.	.	4B	e	.	.	2d	-ra,
.	.	.	.	4G	Na-	4d	-d'A-	.	.
=35	=35	=35	=35	=35	=35	=35	=35	=35	=35
4F	e	0r	.	2A	-tu-	1f	-mor	4r	.
4D	Na-	.	.	.	.	.	.	2dd	<On-
4.F	-tu-	.	.	4A	-ra,	.	.	.	.
.	.	.	.	4c	On-	.	.	4a	-d'A-
8G	.	.	.	.	.	.	.	.	.
4A	.	.	.	4c	-d'A-	4e	e	2cc	-mor
4F	-ra,	.	.	4f	-mor	4a	Na-	.	.
4c	e	.	.	4e	e	4g	-tu-	4cc	e
4A	Na-	.	.	4f	Na-	[4f	.	4cc	Na-
=36	=36	=36	=36	=36	=36	=36	=36	=36	=36
2G	-tu-	0r	.	2g	-tu-	4f]	.	2b-X	-tu-
.	.	.	.	.	.	4e	.	.	.
2F	-ra	.	.	1c	-ra	2f	-ra	2a	-ra>
1A	et	.	.	.	.	1e	et	1r	.
.	.	.	.	2c	et	.	.	.	.
=37	=37	=37	=37	=37	=37	=37	=37	=37	=37
2F	Ar-	1r	.	2c	Ar-	2f	ar-	1r	.
2G	-te u-	.	.	2B	-te u-	4e	.	.	.
.	.	.	.	.	.	4d	.	.	.
2A	-ni-	2r	.	2.A	-ni-	4f	.	1a	et
.	.	.	.	.	.	4e	-te u-	.	.
2D	-te	2Fy	et	.	.	2d	-ni-	.	.
.	.	.	.	4B	.	.	.	.	.
=38	=38	=38	=38	=38	=38	=38	=38	=38	=38
0r	.	2Fy	Ar-	4c	.	4a	-te,	2f	ar-
.	.	.	.	4d	.	4A	et	.	.
.	.	2E	-te u-	4e	.	4c	ar-	2g	-te u-
.	.	.	.	8dL	.	4B	-te u-	.	.
.	.	.	.	8eJ	.	.	.	.	.
.	.	2D	-ni-	2f	.	2d	-ni-	2a	-ni-
.	.	2A	-te	2e	-te	2c	-te	2a	-te
=39	=39	=39	=39	=39	=39	=39	=39	=39	=39
2F	Fan-	2r	.	1r	.	4r	.	1r	.
.	.	.	.	.	.	4a	Fan-	.	.
4E	-no e-	2c	Fan-	.	.	4g	-no a-	.	.
4F	-mi-	.	.	.	.	4a	-mi-	.	.
4G	-ci-	4B	-no e-	2r	.	4d	-ci-	2r	.
4E	-tia e	4c	-mi-	.	.	4e	-tia e	.	.
2D	li-	4d	-ci-	4r	.	2A	li-	2f	Fan-
.	.	4d	-tia e	4d	Fan-	.	.	.	.
=40	=40	=40	=40	=40	=40	=40	=40	=40	=40
4AA	-te,	4e	li-	4c	-no a-	2A	-te,	4e	-no a-
4A	<Fan-	8dL	.	4A	-mi-	.	.	4f	-mi-
.	.	8cJ	.	.	.	.	.	.	.
4G	-no a-	4d	.	4B	-ci-	2r	.	4g	-ci-
4A	-mi-	2c	.	4c	-tia e	.	.	4e	-tia e
4F	-ci-	.	.	2d	li-	2f	Fan-	2d	li-
4D	-tia e	4B	.	.	.	.	.	.	.
4.C	li-	2c	-te,	2G	-te,	4.e	-no a-	4e	-te,
.	.	.	.	.	.	.	.	4cc	Fan-
8D	.	.	.	.	.	8f	-mi-	.	.
=41	=41	=41	=41	=41	=41	=41	=41	=41	=41
2E	.	2r	.	2r	.	2g	-ci-	4b	-no a-
.	.	.	.	.	.	.	.	4cc	-mi-
4D	-te,>	2Fy	Fan-	2d	Fan-	2a	-tia	1dd	-ci-
4D	Fan-	.	.	.	.	.	.	.	.
4GG	-no a-	4G	-no a-	4B-X	-no a-	2r	.	.	.
4FF#X	-mi-	4A	-mi-	4A	-mi-	.	.	.	.
2GG	-ci-	4B-X	-ci-	[2G	-ci-	[2d	e	2b-X	-tia e
.	.	4G	-tia e	.	.	.	.	.	.
=42	=42	=42	=42	=42	=42	=42	=42	=42	=42
1D	-tia e	0A	li-	2G]	.	2d]	.	0a	li-
.	.	.	.	2F	-tia e	1d	li-	.	.
1AA	li-	.	.	1E	li-	.	.	.	.
.	.	.	.	.	.	2c#X	.	.	.
=43	=43	=43	=43	=43	=43	=43	=43	=43	=43
0Dl	-te.	0Al	-te.	0Dl	-te.	0dl	-te.	0f#Xl	-te.
==	==	==	==	==	==	==	==	==	==
*-	*-	*-	*-	*-	*-	*-	*-	*-	*-
!!!system-decoration: [*]
!!!RDF**kern: i = editorial accidental
!!!RDF**kern: l = terminal long
!!!ENC: Emiliano Ricciardi
!!!END: 2018
!!!EED: Ricciardi, Emiliano
!!!EEV: 2018/10/28
!!!YEC: Copyright 2018 Emiliano Ricciardi, All Rights Reserved
!!!ONB: Translated from MusicXML on 2018/10/28 and edited by Craig Stuart Sapp
!!@@BEGIN:	VERSEDATA
!!@SOLERTI:	198
!!@CATALOGNUM:	Trm0198
!!@LAST_MODIFIED: 2020/07/12
!!@TITLE:		Chi la felice pianta d'orïente
!!@GENRE:		madrigale
!!@MANUSRC:	E<sub>1</sub>, F<sub>2</sub>
!!@PRINTSRC:	28, 48, 54, 93, 141, 166, 169
!!@@BEGIN:	VERSES
!!@ABOUTIT:	Nel medesimo soggetto. (i.e., "A Mantova, per le nozze del signor conte Annibale Turco e la signora Laura Peperara." Rime 197)
!!@ABOUTEN:	On the same subjet. (i.e., "To Mantua, [on occasion] of the wedding of Annibale Turco and Laura Peperara." Rime 197)
!!@EDITOR:	Solerti, Angelo
!!@EDITION_TITLE: Le Rime di Torquato Tasso
!!@EDITION_LOC:	Bologna
!!@EDITION_PUB:	Romagnoli-Dall’Acqua
!!@EDITION_DATE:  1898-1902
!!@EDITION_VOL:	2
!!@EDITION_PAGE:  291
!!@TRANSLATOR:	Emiliano Ricciardi and Amyrose McCue Gill
!!@VERSE:
!!	Chi la felice pianta d'orïente
!!	Portò ne l'occidente?
!!	E di qual mano aventurosa è questo
!!	Maraviglioso innesto?
!!@VERSE:
!!	Felice, chi raccoglie
!!	Pepe nel lauro tra le verdi foglie!
!!	Ond'amor e natura ed arte unite
!!	Fanno amicizia e lite.
!!@TVERSE:
!!	Who brought the happy plant from the Orient
!!	To the Occident?
!!	And by whose daring hand is this
!!	Marvelous graft [made]?
!!@TVERSE:
!!	Happy is he who gathers
!!	Pepper in the laurel among the green leaves!
!!	Where love and nature and art unite
!!	They make friendship and arguments.
!!@@END:		VERSES
!!@OTHER_CRIT_ED:   None
!!@ATTRIBUTION_ABOUT:	Secure
!!		<br>
!!		Among other sources (see Literary Sources), this poem appears in the authoritative manuscript It. 385, Biblioteca Estense Universitaria, Modena.
!!@DATING:	1583
!!@DEDICATEE:	Peperara, Laura
!!@COMMENTARY:
!!@@END:		VERSEDATA
!!@@BEGIN:	SETTING
!!@CATALOGNUM:	Trm0198a
!!@RIMETITLE:	Chi la felice pianta d'orïente
!!@SOLERTI:	198
!!@COMPOSER:	Vecoli, Regolo
!!@PRINCEPSTITLE:	Il secondo libro de madrigali a cinque voci
!!@PRINCEPSLOC:	Parigi
!!@NORMLOC:	Paris
!!@NORMPUB:	Le Roy et Ballard
!!@NORMPUBSHORT:	Le Roy et Ballard
!!@PRINCEPSPUB:	Le Roy et Ballard
!!@PRINCEPSYEAR:	1586
!!@PRINCEPSRISM:	V 1086
!!@REPRINTS:	
!!@OVOICES:	5
!!@EXTANTVOICES:	5
!!@PARTBOOKS:	
!!@EXTPARTBOOKS:	
!!@OCLEFS:	C1,C2,C4,C4,F4
!!@OMENSURATION:	Cut-C
!!@OKEYSIG:	-
!!@FINAL:	D
!!@TIMPEDITOR:	Ricciardi, Emiliano
!!@NOTE:		
!!@@END:		SETTING
